flaticon/essential/minus-1.svg

<svg xmlns="http://www.w3.org/2000/svg" width="32" height="32" viewBox="0 0 24 24">
    <path d="M 20.757812 15.273438 L 3.242188 15.273438 C 1.453125 15.273438 0 13.804688 0 12 C 0 10.195312 1.453125 8.726562 3.242188 8.726562 L 20.757812 8.726562 C 22.546875 8.726562 24 10.195312 24 12 C 24 13.804688 22.546875 15.273438 20.757812 15.273438 Z M 3.242188 9.816406 C 2.074219 9.816406 1.089844 10.816406 1.089844 12 C 1.089844 13.183594 2.074219 14.183594 3.242188 14.183594 L 20.757812 14.183594 C 21.925781 14.183594 22.910156 13.183594 22.910156 12 C 22.910156 10.816406 21.925781 9.816406 20.757812 9.816406 Z M 3.242188 9.816406"/>
</svg>

<svg xmlns="http://www.w3.org/2000/svg" width="32" height="32" viewBox="0 0 24 24">
    <path d="M20.758 15.273H3.242C1.453 15.273 0 13.805 0 12c0-1.805 1.453-3.273 3.242-3.273h17.516C22.547 8.727 24 10.195 24 12c0 1.805-1.453 3.273-3.242 3.273zM3.242 9.816c-1.168 0-2.152 1-2.152 2.184 0 1.184.984 2.184 2.152 2.184h17.516c1.168 0 2.152-1 2.152-2.184 0-1.184-.984-2.184-2.152-2.184zm0 0"/>
</svg>
